src/images_karasa_jaga_svg/cmd/32/flowchartshapes.flowchart-terminator.svg

<svg height="32" viewBox="0 0 32 32" width="32" xmlns="http://www.w3.org/2000/svg" xmlns:xlink="http://www.w3.org/1999/xlink"><linearGradient id="a" gradientTransform="matrix(0 1 -1 0 123.387902 -.000002)" gradientUnits="userSpaceOnUse" x1="128" x2="-1.7014" y1="63.387901" y2="63.387901"><stop offset="0" stop-color="#fff"/><stop offset=".30840066" stop-color="#fff"/><stop offset=".68741059" stop-color="#f1f1f1"/><stop offset=".92520201" stop-color="#eaeaea"/><stop offset="1" stop-color="#dfdfdf"/></linearGradient><linearGradient id="b" gradientTransform="matrix(0 1 -1 0 123.387902 -.000002)" gradientUnits="userSpaceOnUse" x1="164.67596" x2="-29.985672" y1="79.935867" y2="32.944592"><stop offset="0" stop-color="#7c9fcf"/><stop offset=".5" stop-color="#7c9ece"/><stop offset="1" stop-color="#7b9dcf"/></linearGradient><g fill-rule="evenodd" transform="scale(.25)"><path d="m24 12a3.9997297 3.9997297 0 0 0 -.888672.101562c-6.111465 1.394233-10.062192 7.259889-12.695312 15.789063-2.6331205 8.529174-4.088284 20.394261-4.0898441 36.109375a3.9997297 3.9997297 0 0 0 0 .002c.00508 15.705601 1.4612605 27.568839 4.0937501 36.09961 2.632489 8.53077 6.577726 14.40215 12.691406 15.79688a3.9997297 3.9997297 0 0 0 .888672.10151h.244141.839843l-.02734-.004a3.9997297 3.9997297 0 0 0 .08594 0l-.035162.004h78.554688.33789a3.9997297 3.9997297 0 0 0 1.12109-.16016c3.57289-1.04306 4.92717-3.81443 6.40039-6.22851 2.13868-3.50449 3.81318-8.08892 5.24219-13.742189 2.70555-10.703294 4.43173-16.322489 4.43164-31.869141-.00004-15.556226-1.78598-21.177107-4.48828-31.867188-1.42901-5.653086-3.10351-10.23778-5.24219-13.742187-.72417-1.186631-1.39138-2.311799-2.30859-3.417969-.91721-1.106169-2.23526-2.28462-4.03516-2.810547a3.9997297 3.9997297 0 0 0 -1.12109-.162109h-.39453-60.158204-16.806641-1.601563-.849609zm.210938 103.90039a3.9997297 3.9997297 0 0 0 .05469.0117l-.0293-.004c.02609.006-.04773-.0131-.02539-.008z" fill="url(#b)"/><path d="m24.189168 16h-.189168c-7.80419 1.780401-13.669818 17.075439-13.672888 48 .01 30.905712 5.873448 46.2207 13.672888 48h.244411.839843c.003.00065.0068.00095.0098.002.005-.00064.009-.00095.01367-.002h78.553746.33853c1.58047-.4614 2.66746-2.11414 4.10678-4.47266 1.7953-2.94183 3.41073-7.22453 4.7793-12.63867 2.72609-10.784561 4.30935-15.618345 4.30926-30.88867-.00004-15.270032-1.63842-20.102574-4.3645-30.886719-1.36857-5.413968-2.9841-9.697075-4.7793-12.638672-1.43904-2.358001-2.47146-4.012913-4.05154-4.474609h-.39377-60.158236-16.807655-1.601562z" fill="url(#a)"/></g></svg>

<?xml version="1.0" encoding="UTF-8" standalone="no"?>
<!-- Created with Inkscape (http://www.inkscape.org/) -->

<svg
   xmlns:dc="http://purl.org/dc/elements/1.1/"
   xmlns:cc="http://creativecommons.org/ns#"
   xmlns:rdf="http://www.w3.org/1999/02/22-rdf-syntax-ns#"
   xmlns:svg="http://www.w3.org/2000/svg"
   xmlns="http://www.w3.org/2000/svg"
   xmlns:xlink="http://www.w3.org/1999/xlink"
   xmlns:sodipodi="http://sodipodi.sourceforge.net/DTD/sodipodi-0.dtd"
   xmlns:inkscape="http://www.inkscape.org/namespaces/inkscape"
   version="1.1"
   id="svg2"
   width="128"
   height="128"
   viewBox="0 0 128 128"
   sodipodi:docname="flowchartshapes.flowchart-terminator.svg"
   inkscape:export-filename="/home/rizmut/Dokumen/Rizmut/Github/libreoffice-style-karasa-jaga/build/images_karasa_jaga/cmd/32/flowchartshapes.flowchart-terminator.png"
   inkscape:export-xdpi="24"
   inkscape:export-ydpi="24"
   inkscape:version="0.92.3 (unknown)">
  <metadata
     id="metadata8">
    <rdf:RDF>
      <cc:Work
         rdf:about="">
        <dc:format>image/svg+xml</dc:format>
        <dc:type
           rdf:resource="http://purl.org/dc/dcmitype/StillImage" />
        <dc:title />
      </cc:Work>
    </rdf:RDF>
  </metadata>
  <defs
     id="defs6">
    <inkscape:perspective
       id="perspective27"
       inkscape:persp3d-origin="64 : 42.666667 : 1"
       inkscape:vp_z="128 : 64 : 1"
       inkscape:vp_y="0 : 1000 : 0"
       inkscape:vp_x="0 : 64 : 1"
       sodipodi:type="inkscape:persp3d" />
    <linearGradient
       id="linearGradient3369">
      <stop
         id="stop3372"
         offset="0"
         style="stop-color:#ffffff;stop-opacity:1;" />
      <stop
         style="stop-color:#ffffff;stop-opacity:1;"
         offset="0.30840066"
         id="stop3374" />
      <stop
         style="stop-color:#f1f1f1;stop-opacity:1;"
         offset="0.68741059"
         id="stop3376" />
      <stop
         id="stop3378"
         offset="0.92520201"
         style="stop-color:#eaeaea;stop-opacity:1;" />
      <stop
         id="stop3384"
         offset="1"
         style="stop-color:#dfdfdf;stop-opacity:1;" />
    </linearGradient>
    <linearGradient
       id="linearGradient7422">
      <stop
         style="stop-color:#7c9fcf;stop-opacity:1"
         offset="0"
         id="stop7424" />
      <stop
         id="stop5348"
         offset="0.5"
         style="stop-color:#7c9ece;stop-opacity:1" />
      <stop
         id="stop7426"
         offset="1"
         style="stop-color:#7b9dcf;stop-opacity:1" />
    </linearGradient>
    <linearGradient
       y2="388.95178"
       x2="399.77466"
       y1="1324.7792"
       x1="405.94968"
       gradientTransform="matrix(0.08097132,0,0,0.07807154,182.74486,-6.9021226)"
       gradientUnits="userSpaceOnUse"
       id="linearGradient2330"
       xlink:href="#linearGradient7422"
       inkscape:collect="always" />
    <linearGradient
       inkscape:collect="always"
       xlink:href="#linearGradient3369"
       id="linearGradient38869"
       x1="128"
       y1="63.387901"
       x2="-1.7013996"
       y2="63.387901"
       gradientUnits="userSpaceOnUse"
       gradientTransform="rotate(90,61.693952,61.69395)" />
    <linearGradient
       inkscape:collect="always"
       xlink:href="#linearGradient3369"
       id="linearGradient42982"
       x1="54.063766"
       y1="82.953201"
       x2="126.61692"
       y2="-37.254951"
       gradientUnits="userSpaceOnUse"
       gradientTransform="translate(-1.0453119e-6,5.2714856)" />
    <linearGradient
       inkscape:collect="always"
       xlink:href="#linearGradient7422"
       id="linearGradient837"
       gradientUnits="userSpaceOnUse"
       gradientTransform="rotate(90,61.693952,61.69395)"
       x1="164.67596"
       y1="79.935867"
       x2="-29.985672"
       y2="32.944592" />
  </defs>
  <sodipodi:namedview
     pagecolor="#ffffff"
     bordercolor="#666666"
     borderopacity="1"
     objecttolerance="10"
     gridtolerance="10"
     guidetolerance="10"
     inkscape:pageopacity="0"
     inkscape:pageshadow="2"
     inkscape:window-width="1366"
     inkscape:window-height="657"
     id="namedview4"
     showgrid="true"
     inkscape:snap-page="true"
     inkscape:snap-global="true"
     inkscape:zoom="1.4142135"
     inkscape:cx="-45.297449"
     inkscape:cy="99.654397"
     inkscape:window-x="0"
     inkscape:window-y="30"
     inkscape:window-maximized="1"
     inkscape:current-layer="svg2"
     showguides="false"
     inkscape:guide-bbox="true">
    <inkscape:grid
       type="xygrid"
       id="grid837"
       spacingx="4"
       spacingy="4"
       empspacing="1" />
    <sodipodi:guide
       position="136,86"
       orientation="-0.70710678,0.70710678"
       id="guide1537"
       inkscape:locked="false" />
  </sodipodi:namedview>
  <path
     sodipodi:type="inkscape:offset"
     inkscape:radius="3.9993298"
     inkscape:original="M 24 16 C 16.19581 17.780401 10.329242 33.075439 10.326172 64 C 10.336172 94.905712 16.20056 110.2207 24 112 L 24.244141 112 L 25.083984 112 C 25.086984 112.00065 25.09075 112.0009 25.09375 112.00195 C 25.09875 112.00131 25.102752 112.00105 25.107422 112 L 103.66211 112 L 104 112 C 105.58047 111.5386 106.6681 109.88586 108.10742 107.52734 C 109.90272 104.58551 111.51815 100.30281 112.88672 94.888672 C 115.61281 84.104111 117.1954 79.270325 117.19531 64 C 117.19527 48.729968 115.55616 43.897426 112.83008 33.113281 C 111.46151 27.699313 109.84598 23.416206 108.05078 20.474609 C 106.61174 18.116608 105.58008 16.461696 104 16 L 103.60547 16 L 43.447266 16 L 26.640625 16 L 25.039062 16 L 24.189453 16 L 24 16 z "
     style="fill:url(#linearGradient837);fill-opacity:1;fill-rule:evenodd;stroke:none;stroke-width:4.47213125;stroke-linecap:round;stroke-linejoin:round;stroke-miterlimit:4;stroke-dasharray:none;stroke-opacity:1"
     id="path835"
     d="m 24,12 a 3.9997297,3.9997297 0 0 0 -0.888672,0.101562 C 16.999863,13.495795 13.049136,19.361451 10.416016,27.890625 7.7828955,36.419799 6.327732,48.284886 6.3261719,64 a 3.9997297,3.9997297 0 0 0 0,0.002 c 0.00508,15.705601 1.4612605,27.568839 4.0937501,36.099607 2.632489,8.53077 6.577726,14.40215 12.691406,15.79688 A 3.9997297,3.9997297 0 0 0 24,116 h 0.244141 0.839843 l -0.02734,-0.004 a 3.9997297,3.9997297 0 0 0 0.08594,0 L 25.107422,116 H 103.66211 104 a 3.9997297,3.9997297 0 0 0 1.12109,-0.16016 c 3.57289,-1.04306 4.92717,-3.81443 6.40039,-6.22851 2.13868,-3.50449 3.81318,-8.08892 5.24219,-13.742189 C 119.46922,85.165847 121.1954,79.546652 121.19531,64 c -4e-5,-15.556226 -1.78598,-21.177107 -4.48828,-31.867188 -1.42901,-5.653086 -3.10351,-10.23778 -5.24219,-13.742187 -0.72417,-1.186631 -1.39138,-2.311799 -2.30859,-3.417969 -0.91721,-1.106169 -2.23526,-2.28462 -4.03516,-2.810547 A 3.9997297,3.9997297 0 0 0 104,12 H 103.60547 43.447266 26.640625 25.039062 24.189453 Z m 0.210938,103.90039 a 3.9997297,3.9997297 0 0 0 0.05469,0.0117 l -0.0293,-0.004 c 0.02609,0.006 -0.04773,-0.0131 -0.02539,-0.008 z" />
  <g
     transform="matrix(0,0.57912965,0.57912965,0,27.114229,-2.9133545)"
     inkscape:label="Livello 1"
     id="g1544" />
  <g
     transform="matrix(0,-0.57912965,0.57912965,0,27.114229,130.91165)"
     inkscape:label="Livello 1"
     id="g1599" />
  <path
     style="opacity:1;fill:url(#linearGradient42982);fill-opacity:1;stroke:none;stroke-width:5.16429853;stroke-linecap:square;stroke-linejoin:bevel;stroke-miterlimit:4;stroke-dasharray:none;stroke-dashoffset:0;stroke-opacity:0.73039216"
     id="path42947"
     ry="14.755787"
     rx="58.373665"
     cy="25.99929"
     cx="64.000618" />
  <g
     id="g42964"
     transform="translate(0,88)" />
  <path
     sodipodi:nodetypes="cccccccccccscsscccccc"
     inkscape:connector-curvature="0"
     id="path37359"
     d="M 24.189168,16 H 24 C 16.19581,17.780401 10.330182,33.075439 10.327112,64 10.337112,94.905712 16.20056,110.2207 24,112 h 0.244411 0.839843 c 0.003,6.5e-4 0.0068,9.5e-4 0.0098,0.002 0.005,-6.4e-4 0.009,-9.5e-4 0.01367,-0.002 H 103.66147 104 c 1.58047,-0.4614 2.66746,-2.11414 4.10678,-4.47266 1.7953,-2.94183 3.41073,-7.22453 4.7793,-12.63867 2.72609,-10.784561 4.30935,-15.618345 4.30926,-30.88867 -4e-5,-15.270032 -1.63842,-20.102574 -4.3645,-30.886719 -1.36857,-5.413968 -2.9841,-9.697075 -4.7793,-12.638672 C 106.6125,18.116608 105.58008,16.461696 104,16 H 103.60623 43.447994 26.640339 25.038777 Z"
     style="fill:url(#linearGradient38869);fill-opacity:1;fill-rule:evenodd;stroke:none;stroke-width:4.47213125;stroke-linecap:round;stroke-linejoin:round;stroke-miterlimit:4;stroke-dasharray:none;stroke-opacity:1" />
</svg>
